icons/_assets/credit_card.svg

<svg width="100" height="100" xmlns="http://www.w3.org/2000/svg"><path d="M42.6065009,68.5215101 C42.7529596,69.8056297 41.8342644,70.9666879 40.5560798,71.112489 L20.9053229,73.3623736 C20.8161162,73.371737 20.7269096,73.3770875 20.6390344,73.3770875 C19.4700281,73.3770875 18.4621263,72.4955929 18.3276506,71.3010941 C18.1798605,70.0169744 19.0998871,68.8559162 20.3780717,68.7101152 L40.0274972,66.4602305 C41.3203277,66.3104166 42.4613737,67.2373904 42.6065009,68.5215101 M57.2510348,57.3055275 C57.3974934,58.5896472 56.4787982,59.7493677 55.2006136,59.8965064 L20.9053229,63.8224347 C20.8161162,63.8331357 20.7255782,63.8371486 20.6390344,63.8371486 C19.4700281,63.8371486 18.4621263,62.955654 18.3276506,61.7611552 C18.1798605,60.4770355 19.0998871,59.317315 20.3780717,59.1701763 L54.6733625,55.244248 C55.9528785,55.0997845 57.107239,56.0200703 57.2510348,57.3055275 M86.2658253,74.9233816 L13.2069235,83.2862108 C11.962025,83.427999 10.8036701,83.0882423 9.95687285,82.3271339 C9.12072708,81.5780641 8.66004805,80.4865624 8.66004805,79.2559478 L8.66004805,51.6045713 L91.339952,42.1395394 L91.339952,69.2585413 C91.339952,72.014048 89.0152537,74.6077022 86.2658253,74.9233816 M13.7341747,25.075462 L86.7944079,16.7126328 C86.9794784,16.6912308 87.1632175,16.6805298 87.3456251,16.6805298 C88.3774928,16.6805298 89.3214854,17.0229617 90.0431272,17.670372 C90.8792729,18.4207794 91.339952,19.5109435 91.339952,20.7428958 L91.339952,25.606499 L8.66004805,35.0715309 L8.66004805,30.7403023 C8.66004805,27.9847956 10.9834149,25.3898038 13.7341747,25.075462 M93.1453877,14.1791717 C91.2946829,12.5178419 88.8554806,11.7701097 86.2658253,12.0617119 L13.2069235,20.4232035 C8.04359026,21.0144336 4,25.5463058 4,30.7403023 L4,37.6946128 L4,49.5152017 L4,79.2559478 C4,81.8389009 5.01322759,84.1703807 6.85194941,85.8196718 C8.44169151,87.2442421 10.4641524,88 12.6397291,88 C13.0005499,88 13.3666966,87.978598 13.7341747,87.9371316 L86.7944079,79.5743024 C91.9550783,78.9830723 96,74.4525377 96,69.2585413 L96,39.5177951 L96,27.6958686 L96,20.7428958 C96,18.1599426 94.9867724,15.8284629 93.1453877,14.1791717" fill="#134B45" fill-rule="evenodd"/></svg>

<svg width="100" height="100" xmlns="http://www.w3.org/2000/svg"><path d="M42.607 68.522a2.338 2.338 0 0 1-2.05 2.59l-19.652 2.25a2.333 2.333 0 0 1-2.578-2.061 2.337 2.337 0 0 1 2.051-2.59l19.65-2.25a2.323 2.323 0 0 1 2.579 2.06M57.25 57.307a2.338 2.338 0 0 1-2.05 2.59l-34.296 3.926a2.333 2.333 0 0 1-2.578-2.061 2.337 2.337 0 0 1 2.051-2.59l34.295-3.927a2.33 2.33 0 0 1 2.578 2.062m29.015 17.617-73.06 8.363c-1.244.142-2.402-.198-3.25-.959-.835-.749-1.296-1.84-1.296-3.071V51.605l82.68-9.465v27.119c0 2.755-2.325 5.349-5.074 5.664M13.734 25.075l73.06-8.362a4.68 4.68 0 0 1 .552-.032c1.031 0 1.975.342 2.697.99.836.75 1.297 1.84 1.297 3.072v4.863L8.66 35.072V30.74c0-2.755 2.323-5.35 5.074-5.665M93.145 14.18c-1.85-1.661-4.29-2.409-6.88-2.117l-73.058 8.361C8.044 21.014 4 25.546 4 30.74v48.515c0 2.584 1.013 4.915 2.852 6.565C8.442 87.244 10.464 88 12.64 88c.36 0 .727-.021 1.094-.063l73.06-8.363C91.955 78.984 96 74.453 96 69.26V20.743c0-2.583-1.013-4.915-2.855-6.564" fill="#134B45" fill-rule="evenodd"/></svg>
